svg/u1f914.svg

<svg viewBox="0 0 128 128" xmlns="http://www.w3.org/2000/svg">
  <g id="gold">
    <radialGradient id="face_1_" cx="63.6" cy="1104.9" gradientTransform="matrix(1 0 0 1 0 -1042)" gradientUnits="userSpaceOnUse" r="56.9597">
      <stop offset="0.5" stop-color="#FDE030"/>
      <stop offset="0.92" stop-color="#F7C02B"/>
      <stop offset="1" stop-color="#F4A223"/>
    </radialGradient>
    <path id="face" d="M63.6,118.8c-27.9,0-58-17.5-58-55.9S35.7,7,63.6,7c15.5,0,29.8,5.1,40.4,14.4 c11.5,10.2,17.6,24.6,17.6,41.5s-6.1,31.2-17.6,41.4C93.4,113.6,79,118.8,63.6,118.8z" fill="url(#face_1_)"/>
    <linearGradient id="face-2_1_" gradientTransform="matrix(1 0 0 1 0 -1042)" gradientUnits="userSpaceOnUse" x1="63.6" x2="63.6" y1="1160.8" y2="1049">
      <stop offset="0" stop-color="#F4A223"/>
      <stop offset="0.08" stop-color="#F7C02B"/>
      <stop offset="0.54" stop-color="#FDE030" stop-opacity="0"/>
    </linearGradient>
    <path id="face-2" d="M63.6,118.8c-27.9,0-58-17.5-58-55.9S35.7,7,63.6,7c15.5,0,29.8,5.1,40.4,14.4 c11.5,10.2,17.6,24.6,17.6,41.5s-6.1,31.2-17.6,41.4C93.4,113.6,79,118.8,63.6,118.8z" fill="url(#face-2_1_)"/>
    <path d="M111.49,29.67c5.33,8.6,8.11,18.84,8.11,30.23c0,16.9-6.1,31.2-17.6,41.4 c-10.6,9.3-25,14.5-40.4,14.5c-18.06,0-37-7.35-48.18-22.94c10.76,17.66,31,25.94,50.18,25.94c15.4,0,29.8-5.2,40.4-14.5 c11.5-10.2,17.6-24.5,17.6-41.4C121.6,50.16,118.13,38.84,111.49,29.67z" fill="#EB8F00"/>
  </g>
  <g id="faces">
    <g id="palm">
      <radialGradient id="prop_1_" cx="41.45" cy="25.0062" gradientTransform="matrix(1 0 0 -0.94 0 107.02)" gradientUnits="userSpaceOnUse" r="59.4319">
        <stop offset="0.27" stop-color="#FFF176"/>
        <stop offset="1" stop-color="#FFC400"/>
      </radialGradient>
      <path id="prop" d="M6.36,75.1c-1.82,2.21,2.05,8.08,2.74,11.07c1.66,7.22,0,9-0.13,15.42 c-0.11,7.06,2,13,7.38,16.79c5.06,3.59,11.16,5.43,18.96,3.13s12.54-4.84,12.94-8.68c0.22-1.59-0.62-3.15-2.08-3.83 c0.78-0.37,1.4-1,1.75-1.79c1.86-4.44-1.85-5.38-1.85-5.38c0.51-0.61,0.94-1.28,1.28-2c1.11-2.21,0.93-5.21-2.27-6.19 c-1.47-0.45-1.87-0.21-1.87-0.21c1.52-1.56,3.34-2.81,5.35-3.65c5.38-2.31,11.76-3.71,13.35-5.06c2.31-2,2.45-5.85-1.63-7 C54.42,76,43.64,80,37.08,84.17S24.5,90.59,22.5,89.83s-3.24-2-4-5c-1.41-5.58-2.5-7.74-4.89-9.83C11.63,73.3,7.76,73.4,6.36,75.1 z" fill="url(#prop_1_)"/>
      <path d="M64.19,80.38c-0.67-9.16-18.71-3.5-27.92,2.53c-11.45,7.5-13.13,6.17-14.25,5.47 c-1.35-0.84-2.2-1.54-2.86-4.14c-1.49-5.88-1.9-8.04-4.58-10.38c-2.24-2.07-8.99-2.02-9.44,1.26c-0.49,3.53,1.51,4.19,2.86,10.98 c1.67,6.88,1,14.48,1,14.48s3.12-7.25,0.12-18.55c-0.61-3.05-3.51-7.72,1.39-7.19c4.74,0.51,5.05,4.64,6.53,10.35 c0.82,3.23,1.66,5.13,4.92,6.03c3.24,0.89,10.73-3.27,16.11-6.69c6.59-4.19,16.36-7.85,21.49-6.35c2.22,0.48,3.7,3.35,1.37,5.38 C57.23,87.05,43,88.62,34.43,97.89c0,0,1.04,0.38,2.6-0.39c1.57-0.77,7.43-3.67,7.43-3.67c1.75,0.74,2.59,3.65,1.64,5.2 c-1.54,2.51-7.53,5.98-10.52,5.83c0,0-0.05,1.53,2.95,1.12c0.95-0.13,4.88-0.99,7.63-3.12c2.05,1.48,1.47,4-0.07,5.82 c-1.53,1.81-5.27,4.15-9.12,4.56c0,0-0.38,1.46,2.21,1.43c2.59-0.03,5.4-1.35,7.47-2.96c0.31,0.49,0.6,1.56,0.25,3.03 c-0.54,2.27-3.59,4.57-9.48,5.85c-5.43,1.18-11.55,2.01-23.36-4.12c0,0,4.41,5.73,15.92,6.75c11.04,0.98,23.93-3.91,18.76-13.72 c0,0,1.12-1.66,1.26-3.94c0.1-1.56-0.39-3.69-1.54-4.66c1.08-3.18,0.74-5.38,0.05-6.68c-0.46-0.86-1.62-1.7-1.62-1.7 s2.29-2.07,9.04-3.81C60.26,87.58,64.6,85.98,64.19,80.38z" fill="#EB8F00"/>
    </g>
    <path d="M18.64,82.13c0,0,4.83,7.86,15.47,2.16c0,0-6.53,6.85-11.61,5.54S18.64,82.13,18.64,82.13z" fill="#EB8F00"/>
    <path d="M49,95.54c0,0,2.46-5.28,6.94-6.85c0,0-7.28,0.62-10.05,3.61L49,95.54z" fill="#EB8F00"/>
  </g>
  <g id="facial_expressions">
    <g id="thinking-face">
      <path id="mouth" d="M76.87,71.31c-0.32-0.06-0.62-0.19-0.87-0.4c-4.51-3.62-9.89-5.98-15.6-6.86 c-5.71-0.99-11.57-0.45-17,1.56c-0.3,0.12-0.62,0.16-0.94,0.11l0,0c-0.7-0.12-1.27-0.64-1.46-1.33c-0.19-0.68,0.04-1.4,0.58-1.85 c10.6-8.8,26.32-7.34,35.12,3.26c0.72,0.87,1.38,1.79,1.98,2.74c0.38,0.59,0.38,1.35,0,1.94C78.29,71.09,77.58,71.41,76.87,71.31z " fill="#422B0D"/>
      <g id="eyes">
        <path d="M80.77,31.11L80.77,31.11c4.19,0,8,3.54,8,9.42s-3.81,9.41-8,9.41l0,0c-4.19,0-8-3.54-8-9.41 S76.58,31.11,80.77,31.11z" fill="#422B0D"/>
        <path d="M46.14,22L46.14,22c-4.19,0-8,3.54-8,9.41s3.81,9.42,8,9.42l0,0c4.2,0,8-3.54,8-9.42 S50.34,22,46.14,22z" fill="#422B0D"/>
      </g>
    </g>
    <path id="eyebrows" d="M39.73,10.63c-0.45-0.74-0.51-1.66-0.16-2.45c0.38-0.79,1.13-1.33,2-1.44 c5.45-0.85,11.01,0.44,15.53,3.59c1.69,1.16,3.19,2.56,4.46,4.17c0.08,0.1,0.15,0.21,0.22,0.33c0.68,1.06,0.45,2.46-0.53,3.25 c-1.05,0.87-2.59,0.84-3.6-0.08l0.42-0.68l-0.51,0.6C53.18,14.26,47.7,12.17,42,12c-0.95,0-1.83-0.5-2.31-1.32L39.73,10.63z" fill="#422B0D"/>
    <path id="eyebrows-2" d="M93,28.52c0.74-0.41,1.24-1.16,1.34-2c0.06-0.87-0.31-1.71-1-2.24 c-4.33-3.45-9.83-5.1-15.34-4.58c-2.04,0.17-4.04,0.65-5.94,1.42l-0.36,0.17c-1.11,0.59-1.6,1.92-1.14,3.09 c0.49,1.27,1.82,1.99,3.15,1.7v-0.8l0.14,0.78c5.6-1.04,11.39-0.17,16.44,2.47c0.83,0.47,1.84,0.47,2.67,0L93,28.52z" fill="#422B0D"/>
    <g id="peepers_146_">
      <path d="M45.96,25.15L45.96,25.15c-1.03-0.72-2.58-0.49-3.58,0.95c-1,1.45-0.67,2.97,0.36,3.69l0,0 c1.03,0.72,2.58,0.49,3.58-0.95C47.32,27.39,46.99,25.87,45.96,25.15z" fill="#896024"/>
    </g>
    <g id="peepers_145_">
      <path d="M80.57,33.71L80.57,33.71c-1.03-0.72-2.58-0.49-3.58,0.95c-1,1.45-0.67,2.97,0.36,3.69l0,0 c1.03,0.72,2.58,0.49,3.58-0.95C81.94,35.95,81.61,34.43,80.57,33.71z" fill="#896024"/>
    </g>
  </g>
</svg>

<svg viewBox="0 0 128 128" xmlns="http://www.w3.org/2000/svg">
  <defs>
    <linearGradient id="face-2_1_" gradientUnits="userSpaceOnUse" x1="63.6" x2="63.6" y1="118.8" y2="7">
      <stop offset="0" stop-color="#F4A223"/>
      <stop offset="0.08" stop-color="#F7C02B"/>
      <stop offset="0.54" stop-color="#FDE030" stop-opacity="0"/>
    </linearGradient>
    <radialGradient id="face_1_" cx="63.6" cy="62.9" gradientUnits="userSpaceOnUse" r="56.9597">
      <stop offset="0.5" stop-color="#FDE030"/>
      <stop offset="0.92" stop-color="#F7C02B"/>
      <stop offset="1" stop-color="#F4A223"/>
    </radialGradient>
    <radialGradient id="prop_1_" cx="41.45" cy="-88.844864" gradientTransform="matrix(1 0 0 -0.94 0 0)" gradientUnits="userSpaceOnUse" r="59.4319">
      <stop offset="0.27" stop-color="#FFF176"/>
      <stop offset="1" stop-color="#FFC400"/>
    </radialGradient>
  </defs>
  <path id="face" d="M63.6,118.8 C35.7,118.8 5.6,101.3 5.6,62.9 C5.6,24.5 35.7,7 63.6,7 C79.1,7 93.4,12.1 104,21.4 C115.5,31.6 121.6,46 121.6,62.9 C121.6,79.8 115.5,94.1 104,104.3 C93.4,113.6 79,118.8 63.6,118.8 Z" fill="url(#face_1_)"/>
  <path id="face-2" d="M63.6,118.8 C35.7,118.8 5.6,101.3 5.6,62.9 C5.6,24.5 35.7,7 63.6,7 C79.1,7 93.4,12.1 104,21.4 C115.5,31.6 121.6,46 121.6,62.9 C121.6,79.8 115.5,94.1 104,104.3 C93.4,113.6 79,118.8 63.6,118.8 Z" fill="url(#face-2_1_)"/>
  <path d="M111.49,29.67 C116.82,38.27 119.6,48.51 119.6,59.9 C119.6,76.8 113.5,91.1 102,101.3 C91.4,110.6 77,115.8 61.6,115.8 C43.54,115.8 24.6,108.45 13.42,92.86 C24.18,110.52 44.42,118.8 63.6,118.8 C79,118.8 93.4,113.6 104,104.3 C115.5,94.1 121.6,79.8 121.6,62.9 C121.6,50.16 118.13,38.84 111.49,29.67 Z" fill="#EB8F00"/>
  <path id="prop" d="M6.36,75.1 C4.54,77.31 8.41,83.18 9.1,86.17 C10.76,93.39 9.1,95.17 8.97,101.59 C8.86,108.65 10.97,114.59 16.35,118.38 C21.41,121.97 27.51,123.81 35.31,121.51 C43.11,119.21 47.85,116.67 48.25,112.83 C48.47,111.24 47.63,109.68 46.17,109 C46.95,108.63 47.57,108 47.92,107.21 C49.78,102.77 46.07,101.83 46.07,101.83 C46.58,101.22 47.01,100.55 47.35,99.83 C48.46,97.62 48.28,94.62 45.08,93.64 C43.61,93.19 43.21,93.43 43.21,93.43 C44.73,91.87 46.55,90.62 48.56,89.78 C53.94,87.47 60.32,86.07 61.91,84.72 C64.22,82.72 64.36,78.87 60.28,77.72 C54.42,76 43.64,80 37.08,84.17 C30.52,88.34 24.5,90.59 22.5,89.83 C20.5,89.07 19.26,87.83 18.5,84.83 C17.09,79.25 16,77.09 13.61,75 C11.63,73.3 7.76,73.4 6.36,75.1 Z" fill="url(#prop_1_)"/>
  <path d="M64.19,80.38 C63.52,71.22 45.48,76.88 36.27,82.91 C24.82,90.41 23.14,89.08 22.02,88.38 C20.67,87.54 19.82,86.84 19.16,84.24 C17.67,78.36 17.26,76.2 14.58,73.86 C12.34,71.79 5.59,71.84 5.14,75.12 C4.65,78.65 6.65,79.31 8,86.1 C9.67,92.98 9,100.58 9,100.58 C9,100.58 12.12,93.33 9.12,82.03 C8.51,78.98 5.61,74.31 10.51,74.84 C15.25,75.35 15.56,79.48 17.04,85.19 C17.86,88.42 18.7,90.32 21.96,91.22 C25.2,92.11 32.69,87.95 38.07,84.53 C44.66,80.34 54.43,76.68 59.56,78.18 C61.78,78.66 63.26,81.53 60.93,83.56 C57.23,87.05 43,88.62 34.43,97.89 C34.43,97.89 35.47,98.27 37.03,97.5 C38.6,96.73 44.46,93.83 44.46,93.83 C46.21,94.57 47.05,97.48 46.1,99.03 C44.56,101.54 38.57,105.01 35.58,104.86 C35.58,104.86 35.53,106.39 38.53,105.98 C39.48,105.85 43.41,104.99 46.16,102.86 C48.21,104.34 47.63,106.86 46.09,108.68 C44.56,110.49 40.82,112.83 36.97,113.24 C36.97,113.24 36.59,114.7 39.18,114.67 C41.77,114.64 44.58,113.32 46.65,111.71 C46.96,112.2 47.25,113.27 46.9,114.74 C46.36,117.01 43.31,119.31 37.42,120.59 C31.99,121.77 25.87,122.6 14.06,116.47 C14.06,116.47 18.47,122.2 29.98,123.22 C41.02,124.2 53.91,119.31 48.74,109.5 C48.74,109.5 49.86,107.84 50,105.56 C50.1,104 49.61,101.87 48.46,100.9 C49.54,97.72 49.2,95.52 48.51,94.22 C48.05,93.36 46.89,92.52 46.89,92.52 C46.89,92.52 49.18,90.45 55.93,88.71 C60.26,87.58 64.6,85.98 64.19,80.38 Z" fill="#EB8F00"/>
  <path d="M18.64,82.13 C18.64,82.13 23.47,89.99 34.11,84.29 C34.11,84.29 27.58,91.14 22.5,89.83 C17.42,88.52 18.64,82.13 18.64,82.13 Z" fill="#EB8F00"/>
  <path d="M49,95.54 C49,95.54 51.46,90.26 55.94,88.69 C55.94,88.69 48.66,89.31 45.89,92.3 L49,95.54 Z" fill="#EB8F00"/>
  <path id="mouth" d="M76.87,71.31 C76.55,71.25 76.25,71.12 76,70.91 C71.49,67.29 66.11,64.93 60.4,64.05 C54.69,63.06 48.83,63.6 43.4,65.61 C43.1,65.73 42.78,65.77 42.46,65.72 L42.46,65.72 C41.76,65.6 41.19,65.08 41,64.39 C40.81,63.71 41.04,62.99 41.58,62.54 C52.18,53.74 67.9,55.2 76.7,65.8 C77.42,66.67 78.08,67.59 78.68,68.54 C79.06,69.13 79.06,69.89 78.68,70.48 C78.29,71.09 77.58,71.41 76.87,71.31 Z" fill="#422B0D"/>
  <path d="M80.77,31.11 L80.77,31.11 C84.96,31.11 88.77,34.65 88.77,40.53 C88.77,46.41 84.96,49.94 80.77,49.94 L80.77,49.94 C76.58,49.94 72.77,46.4 72.77,40.53 C72.77,34.66 76.58,31.11 80.77,31.11 Z" fill="#422B0D"/>
  <path d="M46.14,22 L46.14,22 C41.95,22 38.14,25.54 38.14,31.41 C38.14,37.28 41.95,40.83 46.14,40.83 L46.14,40.83 C50.34,40.83 54.14,37.29 54.14,31.41 C54.14,25.53 50.34,22 46.14,22 Z" fill="#422B0D"/>
  <path id="eyebrows" d="M39.73,10.63 C39.28,9.89 39.22,8.97 39.57,8.18 C39.95,7.39 40.7,6.85 41.57,6.74 C47.02,5.89 52.58,7.18 57.1,10.33 C58.79,11.49 60.29,12.89 61.56,14.5 C61.64,14.6 61.71,14.71 61.78,14.83 C62.46,15.89 62.23,17.29 61.25,18.08 C60.2,18.95 58.66,18.92 57.65,18 L58.07,17.32 L57.56,17.92 C53.18,14.26 47.7,12.17 42,12 C41.05,12 40.17,11.5 39.69,10.68 L39.73,10.63 Z" fill="#422B0D"/>
  <path id="eyebrows-2" d="M93,28.52 C93.74,28.11 94.24,27.36 94.34,26.52 C94.4,25.65 94.03,24.81 93.34,24.28 C89.01,20.83 83.51,19.18 78,19.7 C75.96,19.87 73.96,20.35 72.06,21.12 L71.7,21.29 C70.59,21.88 70.1,23.21 70.56,24.38 C71.05,25.65 72.38,26.37 73.71,26.08 L73.71,25.28 L73.85,26.06 C79.45,25.02 85.24,25.89 90.29,28.53 C91.12,29 92.13,29 92.96,28.53 L93,28.52 Z" fill="#422B0D"/>
  <path d="M45.96,25.15 L45.96,25.15 C44.93,24.43 43.38,24.66 42.38,26.1 C41.38,27.55 41.71,29.07 42.74,29.79 L42.74,29.79 C43.77,30.51 45.32,30.28 46.32,28.84 C47.32,27.39 46.99,25.87 45.96,25.15 Z" fill="#896024"/>
  <path d="M80.57,33.71 L80.57,33.71 C79.54,32.99 77.99,33.22 76.99,34.66 C75.99,36.11 76.32,37.63 77.35,38.35 L77.35,38.35 C78.38,39.07 79.93,38.84 80.93,37.4 C81.94,35.95 81.61,34.43 80.57,33.71 Z" fill="#896024"/>
</svg>
